!!!COM: Anonim
!!!CDT: [?]
!!!OTL@@LAT: Christus qui genitus
!!!TXO: Latin
!!!ODT: 
!!!GTL: Hymnbook A
!!!ARL: Opactwo św. Wojciecha, Staniątki 
!!!voices:	1
**kern
*staff1
*I"[Canto]
=1-
*oclefG2
*clefG2
!*k[b-]
*met(c|)
*M2/1
2f
2f
1a
=-
2cc
2cc
1cc
=-
2dd
2dd
1dd
=-
2cc
2cc
1cc
=-
1cc
2a
2f
=-
1cc
2a
2f
=-
2g
2g
2g
2b
=-
2.a
4g
2f
2e
=-
1f
1e
=-
2g
2g
2g
2b
=-
2.a
4g
2f
2e
=-
1f
1e
=-
0f
=-
1ff
2ee
2dd
=-
1ff
1cc
=-
1ff
2ee
2dd
=-
1ff
1cc
=-
2a
2b
2cc
2dd
=-
2.cc
4b
2a
[2g
=-
2g]
1f
2e
=-
1f
2.a
4b
=-
2cc
2dd
2.cc
4b
=-
2a
1g
[2f
=-
2f]
2e
1f
==
*-
!!title: @{OTL}, @{GTL}: @{pag}, ed. @{ENC}
!!!pag: p. 27r
!!!GTL: Hymnbook A
!!!EFL: 
!!!YEM: Creative Commons CC/BY/NC/SA 4.0
!!!ENC: Marcin Konik
!!!END: 2015-04-17
!!!EED: Marcin Konik
!!!EEV: 
!!!ONB: Encoded in vim by Marcin Konik
!!!CharacterEncoding: utf-8
!!!RDF**kern: l=long note in original notation
!!!RDF**kern: i=editorial accidental
!!muse2ps: z14jc180F
